X:1
T:[ID 1-86b]
T:[ID 1-86b]
T:Bezeichnung standardisiert: Polnischer Tanz Pol: In anderer Quelle: 7. [Montafoner Nationaltanz - Strolz 1812 (Anm. S. Wascher); \"Ahnlich in dieser Quelle: Polonoise ID 2-51 (Anm. S. Wascher);
T:Urheber unbekannt Datum in der hier transkribierten schriftlichen Quelle: vermutlich vor 1767
C:Urheber unbekannt
C:Datum in der hier transkribierten schriftlichen Quelle: vermutlich vor 1767
L:1/8
M:2/4
K:D
V:1 treble 
V:1
 af/a/ ge/g/ | fe/d/ cA | gf e2 | GF E2 | af/a/ ge/g/ | fe/d/ cA | Bc d2 | FE D2 :: df eg | fd cA | %10
 gf e2 | GF E2 | df eg | fd cA | Bc d2 | FE D2 :| %16

